X:1
T:Haul Away for Rosie
M:6/8
L:1/8
K:C
 z4 z G| c2 d c2 _B| G2 F G2 F| E2 C E2 F| G2- A _B- G2| c3 c2 _B|\
 G4- GF| E2 C E2 F| G2- A _B- G2| c3 c2 _B| G4- GF| E2 F G2 F| EC z C2 G|\
 EC z C2 z|
